X:1
T:Corporal Schnapps
M:2/4
L:1/8
K:D
 A| FA DF| E/2F/2 G/2A/2 Bd| eA GE| B2- AA| FA DF| E/2F/2 G/2A/2 Bd|\
 eA| G E/2E/2| D3 A| BG d3/2 c/2| A/2B/2 A/2G/2 DA| BG d B/2B/2| E3 G|\
 FA DF| E/2F/2 G/2A/2 Bd| e A/2A/2 GE| D3 z| B3 d| cF z ^A| BB d/2d/2 B|\
 A3 A| FA DF| E/2F/2 G/2A/2 Bd| eA GE| D2- d2| eA GE| D3||
